X:1
T:Armida's Garden
T:Armida's Garden
T:Copyright © CPDL
T:Copyright © CPDL
T:Copyright © CPDL
T:Copyright © CPDL
T:Copyright © CPDL
Z:Copyright © CPDL
%%score 1 { ( 2 3 ) ( 4 5 ) }
L:1/8
Q:1/4=70
M:3/8
K:Eb
V:1 treble nm="P1"
V:2 treble nm="P2"
V:3 treble 
V:4 bass nm="P3"
V:5 bass 
V:1
"^Editor: John Henry Fowler""^(  Revision:   6 - 1 - 2008  )""^Slow.""^English Poet, Great Niece of Samuel Taylor Coleridge""^Words by Mary Elizabeth Coleridge - (1861 - 1907)" z3 | %1
w: |
"^From \"English Lyrics\" -  Set 9 -  Number 5" z3 | z3 | %3
w: ||
 z"^Charles Hubert Hastings Parry" z F/>"^( 1848 - 1918 )"F/ | GB>G |!>(! F!>)!!<(! E2 | %6
w: I have|been there be-|\-~fore thee,|
 (A!<)!B)c |!>(! !>!F3!>)! |"^cresc." GBG | c>GG- | G/G/!<(!c!<)!e |!>(! d2!>)!!p! c | %12
w: O _ my|love~!|Each wind- ing|way I know|_ and all the|flow'rs, The|
 (3B/c/d/=AG | F2 F |"^rit."!<(! (d/e/f/!<)!!>(!d/) (B/!>)!A/) | G2!p!"^a tempo" B |!<(! E2!<)! c | %17
w: sha- do- wy cy- press|trees, the|twi- * * * light _|grove, Where|rest, in|
 (ec)"^dim."A | F3- | F=EF |"^rit." (B2 A/G/ | (3A/B/c/G)F |"^a tempo" E3 | z3 | z3 | %25
w: fra- * grant|sleep,|_ the en-|chant- * *|* * * * \-~ed|hours.|||
 z"^rit." z!p! F/F/ |"^meno mosso" GB>G | FE z | z3 | z z =A/A/ | %30
w: I have|been there be-|fore thee.||At the|
!p!"^poco animando""^cresc." D2 D | c2 c | B3 | z z"^cresc."!<(! B!<)! |!<(! =A2 A!<)! | e2 e | %36
w: end There|stands a|gate|through|which thou|too must|
!<(! d3-!<)! |"^allargando" d z z |!f! f!>(!e>!>)!d | cG z | e>dc/G/ ||[M:2/4] E3 E | cB =d/d/c | %43
w: pass.|_|When thou shalt|reach it,|God in mer- cy|send Thou|say no bit- te- rer|
 e2 g2- | g z z/!p!"^ad lib." G!<(!E/!<)! ||[M:3/8]"^a tempo" _c3- | c z z | z3 | z3 |] %49
w: word, love,|_ than "a-|las."|_|||
V:2
 (egB | A2) z | (_ceG | [_CF]3) | (B,/G/!<(!A,/D/!<)!!>(!G,/!>)!E/) | %5
!>(!!>(! (A,/D/G,/!>)!!>)!E/) (B,/G/) | (G,/C/!<(!G,/C/!<)!A,/!>)!!>(!F/) | %7
!>(! (C/E/B,/D/A,/!>)!F/) |!<(! (G,/E/F,/D/G,/E/)!<)! | (A,/F/G,/E/C/G/) | %10
 (E/c/!<(!C/G/)!<)! (G/e/) |!>(! (F/=A/=E/!>)!G/^F/A/) | z/ (B,/ D/E/=E/C/) | z/ (C/ F/G/=A/G/) | %14
"^rit." A2 (E/F/) | (D/G/E/G/) (_D/"^a tempo"B/) | (C/E/B,/E/A,/E/ | G,/E/A,/E/C/A/) | %18
 E/!>!c/D/!>!=B/E/!>!c/ | C/!>!F/D/!>!=E/C/F/ | (D/B/_E/G/C/c/) | D/F/ z B |"^a tempo" ([Be]g)(B | %23
 A2) x | ([B,EG][DFB])[CE] | D3 | ([G,EG][A,DF][G,E]) | [A,DF][G,E]!>![EGe] | =A2 (!>![EGe]- | %29
 [EGe][D^F=A])[EFe] |"^poco animando" [DG]2 x | [C^F]2 x | [B,GB]2 x | %33
 ([B=e]/G/) ([^FA]/^f/) ([dg]/G/) | [EG=A]2 x | [EGe]2 x | [^F=Ad]2 x | %37
 (!>![dg]/G/) (!>![c^f]/=a/) (!>![c=f]/c'/) | [=Bf=b] .[G=A].[FB] | (c/G/E/G/c/e/) | [EGce]EG || %41
[M:2/4] A2 z"^più lento" E |!<(! !tenuto![Ac]!tenuto![GB]!tenuto![B=d]!<)!!tenuto![Ac] | %43
 [EBe](G [Gg][Ff]) | ([Dd][Ee]/) z/ z2 ||[M:3/8] _ceE |"^dim."!>(!!>(! D2!>)!!>)! [DF] | [A,E]3 | %48
 !fermata![A,E]3 |] %49
V:3
 [GB]2 [EG-] | ([EG]F) x | [EG]2 [B,E-] | E E2 | (B,A,G,) | (A,G,B,) | (G,G,A,) | (CB,A,) | %8
 (G,F,G,) | (A,G,C) | (EC)G | (^F=EF) | x3 | x/ C/- CE | F2 E | (DE)_D | CB,A, | G,A,C | z/ c=Bc/ | %19
 z/ F=E!>!F/ | x3 | (DCD) | EG[EG-] | G/=E/G/F/_E/D/ | x3 | x3 | x3 | x3 | ^FD x | x3 | %30
 x/ x/ x/ G,/D/G/ | x/ x/ x/ C/^F/c/ | x/ x/ x/ x/ ([GB]/d/) | x3 | x/ x/ x/ x/ G/c/ | %35
 x/ x/ x/ x/ (G/e/) | x/ x/ x/ x/ [=Ad]/^f/ | x3 | x3 | E2 E | x x _D- ||[M:2/4] DC x2 | x4 | %43
 x G =B2 | G2 x2 ||[M:3/8] [EA]2 x | _C z/ (B,A,/) | x3 | x3 |] %49
V:4
!mf! (E,,/B,,/E,/F,/ G,/B,/) | (C/!>(!F,/A,/C,/F,/!>)!A,,/) |!pp! (E,,/A,,/_C,/_D,/ E,/B,,/) | %3
 (A,/_C,/F,/A,,/C,/A,,,/) |!p! [E,,,E,,]3 | [C,,C,]3 | [F,,C,]3 |"^cresc." [B,,,B,,]3 | %8
"^cresc."!<(! [E,,B,,]3!<)! | [C,,C,]2 B,, | =A,,3 |!p! D,3 | %12
 z/"^poco cresc." (B,,/ D,/E,/=E,/C,/) | z/"^poco cresc." (C,/ F,/G,/=A,/G,/) | F,2 F, | %15
 G,2!p! E, | E,_D,C, | B,,C,!pp!E, | F,3- | F,3 |"^rit." _A,G,E, | F,B,A, | %22
!mf!!<(! (G,/B,,/E,/!<)!F,/G,/B,/) |!<(! (C/A,/C/!<)!!>(!F,/B,/!>)!B,,/) | %24
"^dim." (E,,/B,,/F,/B,,/ G,/B,,/) | (A,/F,/"^rit."C/B,/=A,/_A,/) |"^meno mosso" B,,/B,,B,,B,,/ | %27
 [C,,C,]2!>(! !>![C,=A,]!>)! | [D,A,]2!p! (!>![C,=A,]- | [C,A,][D,=A,])!>![C,^F,A,] | %30
 (B,,,/G,,/D,/ x/ z) | (A,,,/D,,/D,/ x/ z) | (G,,/D,/G,/B,/)"^cresc."(D | ^C=CB,) | %34
 (C,/G,/C/E/ z) | (=A,,/E,/C/E/ z) | D,/=A,/D/D/[CD] | !>![B,D]!>![=A,D]!>![_A,D=F] | %38
!f! ([G,,,G,,]/D,/=A,/D,/ G,/G,,/) |!<(! [C,,G,,]3!<)! |!>(! [E,,,E,,]!>)! E,2 || %41
[M:2/4]!p! [A,,E,]2 z E, | %42
"^cresc."!<(! !tenuto![A,C]!tenuto![G,B,]!tenuto![B,=D]!<)!!tenuto![A,C] | [G,,E,B,](G, !>!ED) | %44
 (=B,C/) z/ z2 ||[M:3/8]!p!!<(! A,,/E,/A,/B,/!<)!_C/F,/ | B,,/=E,/F,/ z/ B,, | [E,,B,,]3 | %48
 !fermata![E,,B,,]3 |] %49
V:5
 E,,2 x | C2 x | E,,3 | x3 | x3 | x3 | x3 | x3 | x3 | x3 | x3 | x3 | G,,3 | =A,,2 x | %14
 (B,,B,,,)(B,, | =B,,C,)_B,, | A,,3 | A,,,3 | (A,,3 | =A,,3) | B,,3 | B,,3 | [E,,B,,]2 z | x3 | %24
 E,,2 z | x3 | E,,3 | x3 | x3 | x3 | B,,,2 x | =A,,,2 x | G,,,2 x | x3 | C,2 x | =A,,2 x | D,,2 z | %37
 x3 | x3 | x3 | x3 ||[M:2/4] x4 | x4 | x G, [G,=B,]2 | [C,G,]2 x2 ||[M:3/8] A,,,2 x | B,,,2 x | %47
 x3 | x3 |] %49

